!!!COM: Scarlatti, Domenico
!!!CDT: 1685///-1757///
!!!OTL: Sonata in B-flat Major, K.442, L.319
!!!SCT: K. 442
!!!SCT: L. 319
!!!OMD: Allegro
**kern	**kern	**dynam
*Icemba	*Icemba	*Icemba
*staff2	*staff1	*staff1/2
*>[A,A,B,B]	*>[A,A,B,B]	*>[A,A,B,B]
*>norep[A,B]	*>norep[A,B]	*>norep[A,B]
*>A	*>A	*>A
*clefG2	*clefG2	*clefG2
*k[b-e-]	*k[b-e-]	*k[b-e-]
*B-:	*B-:	*B-:
*M3/8	*M3/8	*M3/8
*MM120	*MM120	*MM120
=1-	=1-	=1-
8r	8bb-\	f
8b-'\ 8dd'\L	8r	.
8a'\ 8cc'\J	8r	.
=2	=2	=2
8r	8bb-\	.
8g'/ 8b-'/L	8r	.
8f'/ 8a'/J	8r	.
=3	=3	=3
8r	8bb-\	.
8e-'/ 8g'/L	8r	.
8d'/ 8f'/J	8r	.
*clefF4	*	*
=4	=4	=4
(8e-\L	(16bb-\LL	.
.	16gg\	.
8f'\)	16ff\	.
.	16ee-\	.
8F'\J	16dd\	.
.	16cc\JJ)	.
*clefG2	*	*
=5	=5	=5
8r	(16bb-\LL	p
.	16aa\JJ)	.
8b-'\ 8dd'\L	4bb-\	.
8a'\ 8cc'\J	.	.
=6	=6	=6
8r	(16bb-\LL	.
.	16aa\JJ)	.
8g'/ 8b-'/L	4bb-\	.
8f'/ 8a'/J	.	.
=7	=7	=7
8r	(16bb-\LL	.
.	16aa\JJ)	.
8e-'/ 8g'/L	4bb-\	.
8d'/ 8f'/J	.	.
*clefF4	*	*
=8	=8	=8
(8e-\L	16bb-\LL	.
.	16gg\	.
8f'\)	16ff\	.
.	16ee-\	.
8F'\J	16dd\	.
.	16cc\JJ	.
=9	=9	=9
4.BB-^/	16b-/LL	<
.	16g/	(
.	16f/	(
.	16e-/	(
.	16d/	(
.	16c/JJ	(
*	*clefF4	*clefF4
=10	=10	=10
4.r	16B-\LL	(
.	16G\	(
.	16F\	(
.	16E-\	(
.	16D\	(
.	16C\JJ	(
=11	=11	=11
16BB-/LL	4.r	(
16GG/	.	(
16FF/	.	(
16EE-/	.	(
16DD/	.	(
16CC/JJ	.	(
*	*clefG2	*clefG2
=12	=12	=12
4BBB-^/	8r	[
.	4b-^\ 4bb-^\	f
8B-'\	.	.
=13	=13	=13
(4c\	(16aa\LL	.
.	16gg\	.
.	16ff#\	.
.	16ee-\	.
8d\	16dd\	.
.	16cc\JJ	.
=14	=14	=14
4e-\)	16gg\LL	.
.	16b-\	.
.	16a\	.
.	16ff#\)	.
8E-'\	(16ff#\	.
.	16gg\JJ)	.
=15	=15	=15
8.D^\L	8gg'\	.
.	4aa\	p
(16c\L	.	.
16B-\	.	.
16A\JJ	.	.
=16	=16	=16
8.G\L	8r	.
.	4b-^\ 4bb-^\	.
16F\L	.	.
16E-\	.	.
16D\JJ	.	.
=17	=17	=17
8C'\L)	(16aa\LL	.
.	16gg\	.
(8c\	16ff#\	<
.	16ee-\	(
8d\J	16dd\	(
.	16cc\JJ	(
=18	=18	=18
4e-\)	16gg\LL	(
.	16b-\	(
.	16a\	(
.	16ff#\)	(
8E-'\	(16ff#\	(
.	16gg\JJ)	[
=19	=19	=19
8.D^\L	8gg'\	f
.	4aa\	.
(16d\L	.	.
16c\	.	.
16Bn\JJ	.	.
=20	=20	=20
8.A\L	8r	.
.	4cc^\ 4ccc^\	.
16g\L	.	.
16f\	.	.
16en\JJ	.	.
=21	=21	=21
4d\)	(16bbn\LL	.
.	16aa\	.
.	16gg#\	.
.	16ffn\	.
8en'\	16een\	.
.	16dd\JJ	.
=22	=22	=22
4f\	16aa\LL	.
.	16cc\	.
.	16bn\	.
.	16gg#\)	.
8F'\	(16gg#\	.
.	16aa\JJ)	.
=23	=23	=23
8.En^\L	8aa'\	.
.	4bbn\	.
(16d\L	.	.
16c\	.	.
16Bn\JJ	.	.
=24	=24	=24
8.A\L	8r	.
.	4cc^\ 4ccc^\	.
16G\L	.	.
16F\	.	.
16En\JJ	.	.
=25	=25	=25
8D'\L)	(16bbn\LL	.
.	16aa\	.
(8d\	16gg#\	.
.	16ff\	.
8en\J	16een\	.
.	16dd\JJ	.
=26	=26	=26
4f\)	16aa\LL	.
.	16cc\	.
.	16bn\	.
.	16gg#\)	.
8F'\	(16gg#\	.
.	16aa\JJ)	.
=27	=27	=27
4.EEn^/	8aa'\	.
.	4bbn\	.
=28	=28	=28
(4En\	(16gg#\LL	p
.	16aa\	.
.	16bbn\	.
.	16ff\	.
8G#\	16een\	.
.	16dd\JJ	.
=29	=29	=29
4A\	16cc#\LL	.
.	16dd\	.
.	16een\	.
.	16b-\	.
8c#\	16a\	.
.	16g\JJ	.
=30	=30	=30
8d'\L)	16f\LL	<
.	16dd\	(
8c#'\	16g\	(
.	16een\	(
8d'\J	16a\	(
.	16ff\JJ	(
=31	=31	=31
8B-'\L	16b-\LL	(
.	16gg\	(
8F'\	16dd\	(
.	16aa\	(
8G'\J	16dd\	(
.	16bb-\JJ)	[
=32	=32	=32
!	!(ddq/	!.
4.AA^/	(8.cc#\L)	f
.	16bn\k	.
.	8a\J)	.
=33	=33	=33
(16a\LL	(8.een\L	f
16en\	.	.
16c#\	.	.
16A\JJ)	16ff\L	.
8DD'/	16gg\	.
.	16aa\JJ)	.
=34	=34	=34
4.AAA^/	(16aa\LL	.
.	16gg\)	.
.	(16gg\	.
.	16ff\	.
.	16een\	.
.	16dd\JJ	.
=35	=35	=35
(16a\LL	8.een\L	.
16en\	.	.
16c#\	.	.
16A\JJ)	16ff\L	.
8DD'/	16gg\	.
.	16aa\JJ)	.
=36	=36	=36
4.AAA^/	(16aa\LL	.
.	16gg\)	.
.	(16gg\	.
.	16ff\	.
.	16een\	.
.	16dd\JJ	.
=37	=37	=37
(16a\LL	8.een\L	.
16en\	.	.
16c#\	.	.
16A\JJ)	16ff\L	.
8DD'/	16gg\	.
.	16aa\JJ	.
=38	=38	=38
4AAA^/	16gg\LL	.
.	16ff\	.
.	16een\	.
.	16dd\	.
(8AA/	16cc#\	.
.	16ee\JJ	.
=39	=39	=39
8BB-'/L)	16dd\LL	.
.	16ff\	.
8GG'/	16een\	.
.	16gg\	.
8AA'/J	16ff\	.
.	16ee\JJ	.
=40	=40	=40
4.DD^/	16dd\LL	.
.	16aa\	.
.	16ff\	.
.	16dd\	.
.	16a\	.
.	16dd\JJ	.
=41	=41	=41
(16a\LL	(8.een\L)	p
16en\	.	.
16c#\	.	.
16A\JJ)	16ff\L	.
8DD'/	16gg\	.
.	16aa\JJ)	.
=42	=42	=42
4.AAA^/	(16aa\LL	.
.	16gg\)	.
.	(16gg\	.
.	16ff\	.
.	16een\	.
.	16dd\JJ	.
=43	=43	=43
(16a\LL	8.een\L	.
16en\	.	.
16c#\	.	.
16A\JJ)	16ff\L	.
8DD'/	16gg\	.
.	16aa\JJ)	.
=44	=44	=44
4.AAA^/	(16aa\LL	.
.	16gg\)	.
.	(16gg\	.
.	16ff\	.
.	16een\	.
.	16dd\JJ	.
=45	=45	=45
(16a\LL	8.een\L	.
16en\	.	.
16c#\	.	.
16A\JJ)	16ff\L	.
8DD'/	16gg\	.
.	16aa\JJ	.
=46	=46	=46
4AAA^/	16gg\LL	.
.	16ff\	.
.	16een\	.
.	16dd\	.
(8AA/	16cc#\	.
.	16ee\JJ	.
=47	=47	=47
8BB-'/L)	16dd\LL	.
.	16ff\	.
8GG'/	16een\	.
.	16gg\	.
8AA'/J	16ff\	.
.	16ee\JJ)	.
=48	=48	=48
8DD'/	(16d/LL	<
.	16dd/	(
(8c#\L	16en/	(
.	16een/	(
8d\J	16f/	(
.	16ff/JJ	(
=49	=49	=49
8B-\L	16g\LL	(
.	16gg\	(
8F\)	16a\	(
.	16aa\	[
8G'\J	(16bn\)	f
.	[16ddd^\JJ	.
=50	=50	=50
4AA^/	8ddd\L]	.
.	16ccc#\L	.
.	16bb-\	.
(8A\	16aa\	.
.	16gg\JJ	.
=51	=51	=51
8B-'\L)	16gg\LL	.
.	16ff\	.
8G'\	16een\	.
.	16dd\	.
8A'\J	16dd\	.
.	16cc#\JJ)	.
=52	=52	=52
8DD'/	(16d/LL	p
.	16dd/	.
(8c#\L	16en/	.
.	16een/	.
8d\J	16f/	.
.	16ff/JJ	.
=53	=53	=53
8B-\L	16g\LL	.
.	16gg\	.
8F\)	16a\	.
.	16aa\	.
8G'\J	16bn\)	.
.	([16ddd^\JJ	.
=54	=54	=54
4AA/	8ddd\L]	.
.	16ccc#\L	.
.	16bb-\	<
(8A\	16aa\	(
.	16gg\JJ	(
=55	=55	=55
8B-'\L)	16gg\LL	(
.	16ff\	(
8G'\	16een\	(
.	16dd\	(
8A'\J	16dd\	(
.	16cc#\JJ	(
=56	=56	=56
(8D/L	16dd/LL	(
.	16b-/	(
8DD/	16a/	(
.	16g/	(
8EEn/J	16f/	(
.	16en/JJ	(
=57	=57	=57
8FF'/L)	16d/LL	(
.	16f/	(
8GG'/	16en/	(
.	16g/	(
8AA'/J	16f/	(
.	16e/JJ	[
=58	=58	=58
4.DD^/	4.d/)	f
=59:|!|:	=59:|!|:	=59:|!|:
*>B	*>B	*>B
*^	*	*
4.d/	(4D\	(16ff#\LL	f
.	.	16gg\	.
.	.	16aa\	.
.	.	16ee-\	.
.	8F#\	16dd\	.
.	.	16cc\JJ	.
=60	=60	=60	=60
4.d/	8G'\L)	16b-\LL	.
.	.	16cc\	.
.	8A'\	16dd\	.
.	.	16b-\	.
.	8B-'\J	16a\	.
.	.	16g\JJ)	.
=61	=61	=61	=61
4.d/	(4D\	(16ff#\LL	p
.	.	16gg\	.
.	.	16aa\	.
.	.	16ee-\	.
.	8F#\	16dd\	.
.	.	16cc\JJ	.
=62	=62	=62	=62
4.d/	4G\	16bn\LL	.
.	.	16cc\	.
.	.	16dd\	.
.	.	16a-\	.
.	8Bn\)	16g\	.
.	.	16f\JJ)	.
=63	=63	=63	=63
4.c/	(8C\L	(16ee-\LL	f
.	.	16ff\	.
.	8E-\	16gg\	.
.	.	16ee-\	.
.	8F\J	16dd\	.
.	.	16cc\JJ	.
=64	=64	=64	=64
4.d/	4G\	16bn\LL	.
.	.	16cc\	.
.	.	16dd\	.
.	.	16a-\	.
.	8Bn\)	16g\	.
.	.	16f\JJ)	.
=65	=65	=65	=65
4.c/	(8C\L	(16ee-\LL	p
.	.	16ff\	.
.	8E-'\)	16gg\	.
.	.	16ee-\	.
.	8F'\J	16dd\	.
.	.	16cc\JJ)	.
*v	*v	*	*
=66	=66	=66
!	!(ccq/	!.
4.GG/	(8.bn/L)	.
.	16an/k	.
.	8g/J)	.
=67	=67	=67
(16g\LL	(8.dd\L	f
16d\	.	.
16Bn\	.	.
16G\JJ)	16ee-\L	.
8CC'/	16ff\	.
.	16gg\JJ)	.
=68	=68	=68
4.GGG^/	(16gg\LL	.
.	16ff\)	.
.	(16ff\	.
.	16ee-\	.
.	16dd\	.
.	16cc\JJ	.
=69	=69	=69
(16g\LL	8.dd\L	p
16d\	.	.
16Bn\	.	.
16G\JJ)	16ee-\L	.
8CC'/	16ff\	.
.	16gg\JJ)	.
=70	=70	=70
4.GGG^/	(16gg\LL	.
.	16ff\)	.
.	(16ff\	.
.	16ee-\	.
.	16dd\	.
.	16cc\JJ	.
=71	=71	=71
(8G\L	16dd\LL	<
.	16ee-\	(
8g\)	16ff\	(
.	16dd\	(
8f'\J	16cc\	(
.	16bn\JJ	(
=72	=72	=72
8en'\L	16een\LL	(
.	16ff\	(
8c'\	16gg\	(
.	16ee\	(
8e'\J	16dd\	(
.	16cc\JJ)	(
=73	=73	=73
(8F\L	(16cc\LL	(
.	16dd\	(
8f\)	16ee-\	(
.	16cc\	(
8e-'\J	16b-\	(
.	16a\JJ	(
=74	=74	=74
8d'\L	16dd\LL	(
.	16ee-\	(
8B-'\	16ff\	(
.	16a\	(
8d'\J	16g\	(
.	16f\JJ	(
=75	=75	=75
(8e-\L	16g\LL	(
.	16ee-\	(
8f\	16a\	(
.	16ff\	(
8g\J	16b-\	(
.	16gg\JJ	(
=76	=76	=76
8A\L	16cc\LL	(
.	16ee-\	(
8B-'\)	16dd\	(
.	16ff\	(
8E-'\J	16ee-\	(
.	[16dd\JJ)	[
=77	=77	=77
4.FF^/	8dd\L]	f
.	(16cc\L	.
.	16b-\J)	.
.	8cc'\J	.
=78	=78	=78
*	*^	*
(16f\LL	4.ccc/	16ccc\LL	f
16c\	.	16cc\	.
16A\	.	16cc\	.
16F\JJ)	.	16cc\	.
8FF'/	.	16cc\	.
.	.	16cc\JJ	.
*	*v	*v	*
=79	=79	=79
4.BBB-^/	(16ddd\LL	.
.	16bb-\	.
.	16ff\	.
.	16dd\	.
.	16b-\	.
.	16dd\JJ)	.
=80	=80	=80
*	*^	*
(16f\LL	4.ccc/	16ccc\LL	.
16c\	.	16cc\	.
16A\	.	16cc\	.
16F\JJ)	.	16cc\	.
8FF'/	.	16cc\	.
.	.	16cc\JJ	.
*	*v	*v	*
=81	=81	=81
4.BBB-^/	(16ddd\LL	.
.	16bb-\	.
.	16ff\	.
.	16dd\	.
.	16b-\	.
.	16dd\JJ)	.
=82	=82	=82
*	*^	*
(16f\LL	4.ccc/	16ccc\LL	.
16c\	.	16cc\	.
16A\	.	16cc\	.
16F\JJ)	.	16cc\	.
8FF'/	.	16cc\	.
.	.	16cc\JJ	.
*	*v	*v	*
=83	=83	=83
(8BBB-/L	(16ddd\LL	.
.	16bb-\	.
8CC/	16aa\	.
.	16gg\	.
8DD/J	16gg\	.
.	16ff\JJ	.
=84	=84	=84
8EE-/L	16ee-\LL	.
.	16dd\	.
8FF/)	16dd\	.
.	16cc\	.
8FF'/J	16b-\	.
.	16a\JJ)	.
=85	=85	=85
4.BBB-^/	(16bb-\LL	.
.	16ff\	.
.	16dd\	.
.	16b-\	.
.	16dd\	.
.	16ff\JJ)	.
=86	=86	=86
*	*^	*
(16f\LL	4.ccc/	16ccc\LL	p
16c\	.	16cc\	.
16A\	.	16cc\	.
16F\JJ)	.	16cc\	.
8FF'/	.	16cc\	.
.	.	16cc\JJ	.
*	*v	*v	*
=87	=87	=87
4.BBB-^/	(16ddd\LL	.
.	16bb-\	.
.	16ff\	.
.	16dd\	.
.	16b-\	.
.	16dd\JJ)	.
=88	=88	=88
*	*^	*
(16f\LL	4.ccc/	16ccc\LL	.
16c\	.	16cc\	.
16A\	.	16cc\	.
16F\JJ)	.	16cc\	.
8FF'/	.	16cc\	.
.	.	16cc\JJ	.
*	*v	*v	*
=89	=89	=89
4.BBB-^/	(16ddd\LL	.
.	16bb-\	.
.	16ff\	.
.	16dd\	.
.	16b-\	.
.	16dd\JJ)	.
=90	=90	=90
*	*^	*
(16f\LL	4.ccc/	16ccc\LL	.
16c\	.	16cc\	.
16A\	.	16cc\	.
16F\JJ)	.	16cc\	.
8FF'/	.	16cc\	.
.	.	16cc\JJ	.
*	*v	*v	*
=91	=91	=91
(8BBB-/L	(16ddd\LL	.
.	16bb-\	.
8CC/	16aa\	.
.	16gg\	.
8DD/J	16gg\	.
.	16ff\JJ	.
=92	=92	=92
8EE-/L	16ee-\LL	.
.	16dd\	.
8FF/)	16dd\	.
.	16cc\	.
8FF'/J	16b-\	.
.	16a\JJ)	.
=93	=93	=93
(8B-\L	(16d/LL	<
.	16dd/	(
8c\	16e-/	(
.	16ee-/	(
8d\J	16f/	(
.	16ff/JJ	(
=94	=94	=94
8e-\L	16g\LL	(
.	16gg\	(
8f\)	16a\	(
.	16aa\	(
8g'\J	16b-\	(
.	16bb-\JJ	[
=95	=95	=95
8F'\L	16ccc\LL	f
.	16gg\	.
8G'\	16ff\	.
.	16ee-\	.
8A'\J	16dd\	.
.	16cc\JJ	.
=96	=96	=96
8BB-'/L	16bb-\LL	.
.	16ff\	.
8C'/	16ee-\	.
.	16dd\	.
8D'/J	16cc\	.
.	16b-\JJ	.
=97	=97	=97
(8E-/L	16gg\LL	.
.	16ee-\	.
8F'/)	16dd\	.
.	16cc\	.
8FF'/J	16b-\	.
.	16a\JJ)	.
=98	=98	=98
(8B-\L	(16d/LL	p
.	16dd/	.
8c\	16e-/	.
.	16ee-/	.
8d\J	16f/	.
.	16ff/JJ	.
=99	=99	=99
8e-\L	16g\LL	.
.	16gg\	.
8f\)	16a\	.
.	16aa\	.
8g'\J	16b-\	.
.	16bb-\JJ	.
=100	=100	=100
8F'\L	16ccc\LL	.
.	16gg\	.
8G'\	16ff\	.
.	16ee-\	.
8A'\J	16dd\	.
.	16cc\JJ	.
=101	=101	=101
8BB-'/L	16bb-\LL	<
.	16ff\	(
8C'/	16ee-\	(
.	16dd\	(
8D'/J	16cc\	(
.	16b-\JJ	(
=102	=102	=102
(8E-/L	16gg\LL	(
.	16ee-\	(
8F'/)	16dd\	(
.	16cc\	(
8FF'/J	16b-\	(
.	16a\JJ	(
=103	=103	=103
(8BB-/L	16ff\LL	(
.	16dd\	(
8C/	16cc\	(
.	16b-\	(
8D/J	16a\	(
.	16g\JJ	(
=104	=104	=104
8E-/L	16f/LL	(
.	16e-/	(
8F'/)	16d/	(
.	16c/	(
8FF'/J	16B-/	(
.	16A/JJ	[
=105	=105	=105
4.BBB-^/	4.B-^/)	f
==:|!	==:|!	==:|!
*-	*-	*-
!!!ENC: Craig Stuart Sapp
!!!END: 2009/02/16
